markup/images/icon44.svg

<svg xmlns="http://www.w3.org/2000/svg" width="37" height="30"><path fill-rule="evenodd" fill="#FFF" d="M35.508 30H24.169c-.822 0-1.492-.571-1.492-1.271v-3.144c0-.179.044-.353.129-.516l2.233-4.28a.237.237 0 0 0 .025-.103v-2.127a.233.233 0 0 0-.06-.153l-1.432-1.626a1.16 1.16 0 0 1-.298-.763v-4.81c0-.106-.077-.202-.194-.239l-4.041-1.291a.371.371 0 0 0-.105-.016h-1.075a.304.304 0 0 0-.266.14l-.852 1.451a1.343 1.343 0 0 1-.439.449l-1.98 1.265a1.679 1.679 0 0 1-.895.254c-.164 0-.298.114-.298.255v.862c0 .427-.248.822-.664 1.058l-2.784 1.581a.246.246 0 0 0-.133.211v1.218c0 .086.05.165.133.212l.993.564c.416.237.665.632.665 1.058v3.852c0 .066.031.132.087.179l1.863 1.587c.277.237.437.565.437.899v1.973c0 .7-.67 1.271-1.492 1.271H1.492C.669 30 0 29.429 0 28.729v-7.208c0-.18.046-.362.134-.526l2.824-5.292a.244.244 0 0 0 .026-.106v-2.654c0-.252.086-.496.25-.705l3.28-4.192a.227.227 0 0 0 .05-.141V6.417c0-.334.16-.662.437-.898l3.736-3.183a1.57 1.57 0 0 1 .713-.338L21.246.033c.11-.022.226-.033.341-.033h1.476c.23 0 .46.046.666.134l5.285 2.251c.508.216.825.652.825 1.137v2.964c0 .028.004.054.015.079l1.102 2.817c.051.129.076.265.076.403v1.975a.25.25 0 0 0 .15.221l3.365 1.638c.383.187.648.507.727.877l1.084 5.082c.039.178.032.358-.02.536l-.523 1.783a.215.215 0 0 0-.009.061v2.302c0 .032.008.064.022.094l1.065 2.27c.071.151.107.31.107.472v1.633c0 .7-.67 1.271-1.492 1.271zm-23.274-1.017c.164 0 .298-.114.298-.254v-1.973a.24.24 0 0 0-.087-.179l-.757-.645H8.127l-.597 1.017H5.74l-1.194 2.034h7.688zm-11.041-.254c0 .14.134.254.299.254h1.72l1.526-2.601-.43-1.467H1.193v3.814zm.027-7.313a.228.228 0 0 0-.027.105v2.377H5.24l.597 2.034h.955l.597-1.017h3.122a1.17 1.17 0 0 1-.366-.824v-3.852a.246.246 0 0 0-.133-.212l-.994-.565c-.416-.236-.664-.631-.664-1.057v-.398l-1.48-1.261-2.94-.418-2.714 5.088zm33.542 3.408l-2.268-2.008-2.059-.585v-1.892h1.194v1.159l1.522.432 1.462 1.295v-1.267c0-.103.015-.207.045-.308l.522-1.783a.212.212 0 0 0 .004-.106L34.1 14.678a.257.257 0 0 0-.145-.175l-3.365-1.639a1.491 1.491 0 0 1-.234-.152h-2.308v-1.017h1.791v-1.91a.2.2 0 0 0-.016-.08l-1.102-2.817a1.108 1.108 0 0 1-.076-.402v-.112l-1.375-.781h-3.302l-3.489.991-.377-.965 3.672-1.043h3.858l1.013.575V3.522c0-.097-.063-.184-.165-.227l-5.283-2.251a.36.36 0 0 0-.134-.027h-1.476a.38.38 0 0 0-.067.006l-9.797 1.964a.328.328 0 0 0-.143.068L7.845 6.237a.243.243 0 0 0-.087.18v1.21h1.079l5.968-2.034h3.098V6.61h-2.869L9.066 8.644H7.481l-3.254 4.158a.229.229 0 0 0-.05.141v2.389l3.271.464 1.04.886c.113-.22.289-.414.531-.552l2.783-1.581a.245.245 0 0 0 .133-.212v-.862c0-.701.67-1.272 1.492-1.272a.34.34 0 0 0 .18-.051l1.979-1.264a.276.276 0 0 0 .087-.09l.852-1.451c.254-.434.765-.703 1.334-.703h1.075c.18 0 .357.028.525.082l4.041 1.29c.579.185.968.664.968 1.191v3.03h2.983v1.017h-2.983v.763c0 .055.021.108.06.153l1.432 1.627c.192.219.298.489.298.762v2.127c0 .179-.044.353-.129.516l-2.043 3.917 1.075.305h3.484v-1.017h1.194v1.211l1.931.823h3.752l-.76-1.617zm1.044 2.634h-4.318l-2.387-1.017h-4.133l-1.097-.312v2.6c0 .14.134.254.298.254h11.339c.165 0 .298-.114.298-.254v-1.271zm-3.58-10.678h-1.194v-1.017h1.194v1.017zm-4.178 1.525h1.194v1.017h-1.194v-1.017zM25.661 7.119h1.194v1.017h-1.194V7.119zm-6.564-4.577h1.193v1.017h-1.193V2.542zM8.355 10.678h1.193v1.017H8.355v-1.017zM6.564 13.22h1.194v1.017H6.564V13.22zm-2.983 5.593h1.193v1.017H3.581v-1.017zm0 3.56H2.387v-1.017h1.194v1.017zm4.774 0H7.161v-1.017h1.194v1.017z"/></svg>

<svg 
 xmlns="http://www.w3.org/2000/svg"
 xmlns:xlink="http://www.w3.org/1999/xlink"
 width="37px" height="30px">
<path fill-rule="evenodd"  fill="rgb(255, 255, 255)"
 d="M35.508,30.000 L24.169,30.000 C23.347,30.000 22.677,29.429 22.677,28.729 L22.677,25.585 C22.677,25.406 22.721,25.232 22.806,25.069 L25.039,20.789 C25.055,20.756 25.064,20.721 25.064,20.686 L25.064,18.559 C25.064,18.504 25.043,18.451 25.004,18.406 L23.572,16.780 C23.379,16.560 23.274,16.290 23.274,16.017 L23.274,11.207 C23.274,11.101 23.197,11.005 23.080,10.968 L19.039,9.677 C19.005,9.667 18.970,9.661 18.934,9.661 L17.859,9.661 C17.745,9.661 17.643,9.715 17.593,9.801 L16.741,11.252 C16.638,11.428 16.487,11.583 16.302,11.701 L14.322,12.966 C14.065,13.130 13.748,13.220 13.427,13.220 C13.263,13.220 13.129,13.334 13.129,13.475 L13.129,14.337 C13.129,14.764 12.881,15.159 12.465,15.395 L9.681,16.976 C9.598,17.023 9.548,17.102 9.548,17.187 L9.548,18.405 C9.548,18.491 9.598,18.570 9.681,18.617 L10.674,19.181 C11.090,19.418 11.339,19.813 11.339,20.239 L11.339,24.091 C11.339,24.157 11.370,24.223 11.426,24.270 L13.289,25.857 C13.566,26.094 13.726,26.422 13.726,26.756 L13.726,28.729 C13.726,29.429 13.056,30.000 12.234,30.000 L1.492,30.000 C0.669,30.000 -0.000,29.429 -0.000,28.729 L-0.000,21.521 C-0.000,21.341 0.046,21.159 0.134,20.995 L2.958,15.703 C2.974,15.670 2.984,15.634 2.984,15.597 L2.984,12.943 C2.984,12.691 3.070,12.447 3.234,12.238 L6.514,8.046 C6.547,8.004 6.564,7.955 6.564,7.905 L6.564,6.417 C6.564,6.083 6.724,5.755 7.001,5.519 L10.737,2.336 C10.933,2.169 11.179,2.052 11.450,1.998 L21.246,0.033 C21.356,0.011 21.472,-0.000 21.587,-0.000 L23.063,-0.000 C23.293,-0.000 23.523,0.046 23.729,0.134 L29.014,2.385 C29.522,2.601 29.839,3.037 29.839,3.522 L29.839,6.486 C29.839,6.514 29.843,6.540 29.854,6.565 L30.956,9.382 C31.007,9.511 31.032,9.647 31.032,9.785 L31.032,11.760 C31.032,11.852 31.089,11.936 31.182,11.981 L34.547,13.619 C34.930,13.806 35.195,14.126 35.274,14.496 L36.358,19.578 C36.397,19.756 36.390,19.936 36.338,20.114 L35.815,21.897 C35.809,21.917 35.806,21.938 35.806,21.958 L35.806,24.260 C35.806,24.292 35.814,24.324 35.828,24.354 L36.893,26.624 C36.964,26.775 37.000,26.934 37.000,27.096 L37.000,28.729 C37.000,29.429 36.330,30.000 35.508,30.000 ZM12.234,28.983 C12.398,28.983 12.532,28.869 12.532,28.729 L12.532,26.756 C12.532,26.690 12.500,26.624 12.445,26.577 L11.688,25.932 L8.127,25.932 L7.530,26.949 L5.740,26.949 L4.546,28.983 L12.234,28.983 ZM1.193,28.729 C1.193,28.869 1.327,28.983 1.492,28.983 L3.212,28.983 L4.738,26.382 L4.308,24.915 L1.193,24.915 L1.193,28.729 ZM1.220,21.416 C1.203,21.448 1.193,21.485 1.193,21.521 L1.193,23.898 L5.240,23.898 L5.837,25.932 L6.792,25.932 L7.389,24.915 L10.511,24.915 C10.280,24.686 10.145,24.393 10.145,24.091 L10.145,20.239 C10.145,20.153 10.095,20.074 10.012,20.027 L9.018,19.462 C8.602,19.226 8.354,18.831 8.354,18.405 L8.354,18.007 L6.874,16.746 L3.934,16.328 L1.220,21.416 ZM34.762,24.824 L32.494,22.816 L30.435,22.231 L30.435,20.339 L31.629,20.339 L31.629,21.498 L33.151,21.930 L34.613,23.225 L34.613,21.958 C34.613,21.855 34.628,21.751 34.658,21.650 L35.180,19.867 C35.190,19.832 35.192,19.796 35.184,19.761 L34.100,14.678 C34.085,14.604 34.031,14.540 33.955,14.503 L30.590,12.864 C30.504,12.822 30.430,12.767 30.356,12.712 L28.048,12.712 L28.048,11.695 L29.839,11.695 L29.839,9.785 C29.839,9.757 29.834,9.731 29.823,9.705 L28.721,6.888 C28.671,6.759 28.645,6.624 28.645,6.486 L28.645,6.374 L27.270,5.593 L23.968,5.593 L20.479,6.584 L20.102,5.619 L23.774,4.576 L27.632,4.576 L28.645,5.151 L28.645,3.522 C28.645,3.425 28.582,3.338 28.480,3.295 L23.197,1.044 C23.155,1.027 23.109,1.017 23.063,1.017 L21.587,1.017 C21.565,1.017 21.542,1.019 21.520,1.023 L11.723,2.987 C11.669,2.998 11.620,3.022 11.580,3.055 L7.845,6.237 C7.790,6.285 7.758,6.351 7.758,6.417 L7.758,7.627 L8.837,7.627 L14.805,5.593 L17.903,5.593 L17.903,6.610 L15.034,6.610 L9.066,8.644 L7.481,8.644 L4.227,12.802 C4.195,12.843 4.177,12.892 4.177,12.943 L4.177,15.332 L7.448,15.796 L8.488,16.682 C8.601,16.462 8.777,16.268 9.019,16.130 L11.802,14.549 C11.886,14.502 11.935,14.422 11.935,14.337 L11.935,13.475 C11.935,12.774 12.605,12.203 13.427,12.203 C13.492,12.203 13.554,12.185 13.607,12.152 L15.586,10.888 C15.622,10.864 15.653,10.833 15.673,10.798 L16.525,9.347 C16.779,8.913 17.290,8.644 17.859,8.644 L18.934,8.644 C19.114,8.644 19.291,8.672 19.459,8.726 L23.500,10.016 C24.079,10.201 24.468,10.680 24.468,11.207 L24.468,14.237 L27.451,14.237 L27.451,15.254 L24.468,15.254 L24.468,16.017 C24.468,16.072 24.489,16.125 24.528,16.170 L25.960,17.797 C26.152,18.016 26.258,18.286 26.258,18.559 L26.258,20.686 C26.258,20.865 26.214,21.039 26.129,21.202 L24.086,25.119 L25.161,25.424 L28.645,25.424 L28.645,24.407 L29.839,24.407 L29.839,25.618 L31.770,26.441 L35.522,26.441 L34.762,24.824 ZM35.806,27.458 L31.488,27.458 L29.101,26.441 L24.968,26.441 L23.871,26.129 L23.871,28.729 C23.871,28.869 24.005,28.983 24.169,28.983 L35.508,28.983 C35.673,28.983 35.806,28.869 35.806,28.729 L35.806,27.458 ZM32.226,16.780 L31.032,16.780 L31.032,15.763 L32.226,15.763 L32.226,16.780 ZM28.048,18.305 L29.242,18.305 L29.242,19.322 L28.048,19.322 L28.048,18.305 ZM25.661,7.119 L26.855,7.119 L26.855,8.136 L25.661,8.136 L25.661,7.119 ZM19.097,2.542 L20.290,2.542 L20.290,3.559 L19.097,3.559 L19.097,2.542 ZM8.355,10.678 L9.548,10.678 L9.548,11.695 L8.355,11.695 L8.355,10.678 ZM6.564,13.220 L7.758,13.220 L7.758,14.237 L6.564,14.237 L6.564,13.220 ZM3.581,18.813 L4.774,18.813 L4.774,19.830 L3.581,19.830 L3.581,18.813 ZM3.581,22.373 L2.387,22.373 L2.387,21.356 L3.581,21.356 L3.581,22.373 ZM8.355,22.373 L7.161,22.373 L7.161,21.356 L8.355,21.356 L8.355,22.373 Z"/>
</svg>
